!!!!SEGMENT: pl-kk--kk-i-7--075_lilius-franciszek--recordare-domine.krn
!!!cenid: 16xx:914
!!!COM: Lilius, Franciszek
!!!COM-rismID: pe30020509
!!!CDT: ~1600-1657
!!!CNT: Polish
!!!OTL: Recordare Domine
!!!PDT:
!!!AGN: Sacred
!!!YEC: Copyright 2022 Narodowy Instytut Fryderyka Chopina (https://polishscores.org)
!!!YEM: License CC-BY-4.0 (https://creativecommons.org/licenses/by/4.0)
!!!SMS-siglum: PL-Kk
!!!SMS-shelfmark: Kk.I.7
!!!SMS-shelfwork: 075 W
!!!SMS-variant:
!!!SMS-altvar:
!!!NIFC-rismSourceID: 300258077
!!!NIFC-rismChildID: 300258152
!!!NIFC-islandoraID: pl-kk:1956
!!!URL-pdf-islandora: https://repozytorium.nifc.pl/islandora/object/pl-kk%3A1956/datastream/PDF/view
!!!URL-scan: https://polish.musicsources.pl/pl/lokalizacje/galeria/rekopisy/6140 @EN{Scan on Polish Music Sources Website} @PL{Skany w portalu Dziedzictwo Muzyki Polskiej w otwartym dostępie}
!!!IIIF: https://repozytorium.nifc.pl/islandora/object/pl-kk%3A1956/datastream/IIIF/view
!!!ONB-nifc: UWAGA: C (skan 0066, s.124-125), A (brak), T(0230, s.122-123), B(0316, s.118-119). Następny utwór: Confitebor tibi Domine
!!!AIN: 1 alto 1 bass 1 soprn 1 tenor
!!!key:
**kern	**text	**kern	**text	**kern	**kern	**text
*part4	*	*part3	*	*part2	*part1	*
*staff4	*	*staff3	*	*staff2	*staff1	*
*Ibass	*	*Itenor	*	*Ialto	*Isoprn	*
*I"[Bassus]	*	*I"Tenor.	*	*I"[Altus]	*I"[Cantus]	*
*I'[B]	*	*I'T	*	*I'[A]	*I'[C]	*
*clefF4	*	*clefC4	*	*clefC3	*clefC1	*
*k[]	*	*k[]	*	*k[]	*k[]	*
*a:	*	*a:	*	*a:	*a:	*
*M2/1	*	*M2/1	*	*M2/1	*M2/1	*
*met(C|)	*	*met(C|)	*	*	*met(C|)	*
=1-	=1-	=1-	=1-	=1-	=1-	=1-
!LO:TX:a:t=Tempore\nPestilentiae\na 4.\nF L.	!	!	!	!	!LO:TX:t=P:problem=♯ above	!
!	!	!	!	!LO:TX:t=P:problem=brak partii [dopisane ołówkiem "brak stron 15-40"]	!	!
*xywh-#316:736,2887,6548,1031	*	*xywh-#230:590,368,6578,1031	*	*	*xywh-#66:1081,3542,6068,1024	*
1.E\	Re-	1.B\	RE-	0ryy	1.g#X\	Re-
*2\right	*	*2\right	*	*	*	*
!LO:TX:t=P:problem=kreska pseudotaktowa	!	!LO:TX:t=P:problem=kreska pseudotaktowa	!	!	!LO:TX:t=P:problem=kreska pseudotaktowa	!
!LO:TX:t=P:problem=all\right&colon; global	!	!LO:TX:t=P:problem=all\right&colon; global	!	!	!LO:TX:t=P:problem=♯ below	!
2E\	-cor-	2B\	-cor-	.	2g#X/	-cor-
=2-	=2-	=2-	=2-	=2-	=2-	=2-
*	*	*	*	*	*2\right	*
!	!	!	!	!	!LO:TX:t=P:problem=all\right&colon; global	!
2AA/	-da-	2c\	-da-	0ryy	2a\	-da-
2GG#X/	-re	2B\	-re	.	1b\	-re
2.AA/	Do-	2.c\	Do-	.	.	.
.	.	.	.	.	2.a\	Do-
4AA/	-mi-	4c\	-mi-	.	.	.
=3-	=3-	=3-	=3-	=3-	=3-	=3-
!LO:TX:t=P:problem=kreska pseudotaktowa	!	!LO:TX:t=P:problem=kreska pseudotaktowa	!	!	!	!
1E\	-ne	1B\	-ne	0ryy	.	.
!	!	!	!	!	!LO:TX:t=P:problem=♯ below	!
.	.	.	.	.	4g#X/	-mi-
!	!	!	!	!	!LO:TX:t=P:problem=kreska pseudotaktowa	!
.	.	.	.	.	2g#/	-ne
2r	.	2rc	.	.	2r	.
1C/	te-	1e\	te-	.	1cc\	te-
=4-	=4-	=4-	=4-	=4-	=4-	=4-
.	.	.	.	0ryy	.	.
!LO:TX:t=P:problem=kreska pseudotaktowa	!	!LO:TX:t=P:problem=kreska pseudotaktowa	!	!	!LO:TX:t=P:problem=kreska pseudotaktowa	!
2G\	-ſta-	2d\	-ſta-	.	2b\	-ſta-
2.A\	-men-	2.c\	-men-	.	2a\	-men-
.	.	.	.	.	2e/	-ti
4G\	-ti	4B\	-ti	.	.	.
=5-	=5-	=5-	=5-	=5-	=5-	=5-
!	!	!	!	!	!	!LO:MO:mod=tu-
1F\	tu-	1A\	tu-	0ryy	1a\	ſu-
!	!	!	!	!	!LO:TX:t=P:problem=kreska pseudotaktowa	!
!LO:TX:t=P:problem=kreska pseudotaktowa	!	!LO:TX:t=P:problem=kreska pseudotaktowa	!	!	!LO:TX:t=P:problem=♯ above	!
1E\	-i	1B\	-i	.	1g#X\	-i
=6-	=6-	=6-	=6-	=6-	=6-	=6-
00r	.	2r	.	0ryy	2r	.
.	.	2A/	et	.	2e/	et
.	.	2d\	dic	.	2f/	dic
!	!	!LO:TX:t=P::problem=kreska pseudotaktowa&colon;między nutą a kropką	!	!	!LO:TX:t=P::problem=kreska pseudotaktowa&colon;między nutą a kropką	!
.	.	2.c\	An-	.	2.g/	An-
=7-	=7-	=7-	=7-	=7-	=7-	=7-
.	.	.	.	0ryy	.	.
.	.	4c\	-ge-	.	4g/	-ge-
!	!	!LO:TX:t=P:problem=kreska pseudotaktowa	!	!	!LO:TX:t=P:problem=kreska pseudotaktowa	!
.	.	2F/	-lo	.	2a\	-lo
.	.	2.c\	per-	.	4g/	per-
.	.	.	.	.	8e/	-cu-
.	.	.	.	.	8f/	-ti-
!	!	!	!	!	!LO:TX:t=P::problem=kreska pseudotaktowa&colon;między nutą a kropką	!
.	.	.	.	.	2.g/	-en-
.	.	8G/	-cu-	.	.	.
.	.	8A/	-ti-	.	.	.
=8-	=8-	=8-	=8-	=8-	=8-	=8-
*	*	*lig	*	*	*	*
0r	.	1B-X\	-en-	0ryy	.	.
.	.	.	.	.	4f/	.
.	.	.	.	.	4e/	.
.	.	.	.	.	4d/	.
!	!	!LO:TX:t=P:problem=kreska pseudotaktowa	!	!	!LO:TX:t=P:problem=kreska pseudotaktowa	!
.	.	1A\	.	.	1e/	.
*	*	*Xlig	*	*	*	*
=9-	=9-	=9-	=9-	=9-	=9-	=9-
2r	.	2D/	-ti	0ryy	2d/	-ti
!	!	!	!	!	!LO:TX:t=P:problem=kreska pseudotaktowa	!
!LO:TX:t=P:problem=kreska pseudotaktowa	!	!	!	!	!LO:TX:t=P:problem=♯ above	!
2D/	et	2A/	et	.	2f#X/	et
*	*	*	*	*	*custos:g	*
2G\	dic	2B\	dic	.	2g/	dic
*	*	*	*	*	*xywh-#66:7414,583,6158,914	*
!	!	!	!	!	!LO:PB:g=original	!
2.G\	An-	2.B\	An-	.	2.g/	An-
=10-	=10-	=10-	=10-	=10-	=10-	=10-
.	.	.	.	0ryy	.	.
4G\	-ge-	4B\	-ge-	.	4g/	-ge-
*	*	*custos:B	*	*	*	*
!	!	!LO:TX:t=P:problem=kreska pseudotaktowa	!	!	!	!
!LO:TX:t=P:problem=kreska pseudotaktowa	!	!	!	!	!LO:TX:t=P:problem=kreska pseudotaktowa	!
2C/	-lo	2c\	-lo	.	2g/	-lo
*	*	*xywh-#230:1101,1045,6107,973	*	*	*	*
!	!	!LO:LB:g=original	!	!	!	!
2.G\	per-	4B\	per-	.	0r	.
.	.	8G/	-cu-	.	.	.
.	.	8A/	-ti-	.	.	.
!	!	!LO:TX:t=P::problem=kreska pseudotaktowa&colon;między nutą a kropką	!	!	!	!
.	.	2.B\	-en-	.	.	.
8D\	-cu-	.	.	.	.	.
8E\	-ti-	.	.	.	.	.
=11-	=11-	=11-	=11-	=11-	=11-	=11-
*lig	*	*	*	*	*	*
1F\	-en-	.	.	0ryy	.	.
.	.	4A/	.	.	.	.
.	.	2.A/	.	.	.	.
1E\	.	.	.	.	4r	.
.	.	8G/L	.	.	4ee\	ceſ-
.	.	8F#X/J	.	.	.	.
.	.	2G/	.	.	4ee\	-set
!	!	!	!	!	!LO:TX:t=P:problem=kreska pseudotaktowa	!
.	.	.	.	.	4dd\	iam
!	!	!LO:TX:t=P:problem=kreska pseudotaktowa	!	!	!	!
!	!	!LO:TX:t=P:problem=♯ below	!	!	!	!
*Xlig	*	*	*	*	*	*
=12-	=12-	=12-	=12-	=12-	=12-	=12-
!LO:TX:t=P:problem=kreska pseudotaktowa	!	!	!	!	!LO:TX:t=P:problem=♯ above	!
1AA/	-ti	1A\	-ti	0ryy	2cc#X\	ma-
!	!	!	!	!	!LO:TX:t=P:problem=♯ above	!
.	.	.	.	.	2cc#X\	-nus
0r	.	4r	.	.	2dd\	tu-
.	.	4d\	ceſ-	.	.	.
.	.	4d\	-set	.	2.a\	.
!	!	!LO:TX:t=P:problem=kreska pseudotaktowa	!	!	!	!
.	.	4c\	iam	.	.	.
=13-	=13-	=13-	=13-	=13-	=13-	=13-
.	.	2B\	ma-	0ryy	.	.
.	.	.	.	.	4g/	.
.	.	2c\	-nus	.	1g\	.
1r	.	1A\	tu-	.	.	.
!	!	!	!	!	!LO:TX:t=P:problem=kreska pseudotaktowa	!
!	!	!	!	!	!LO:TX:t=P:problem=♯ above	!
.	.	.	.	.	2f#X/	.
=14-	=14-	=14-	=14-	=14-	=14-	=14-
!	!	!LO:TX:t=P:problem=kreska pseudotaktowa	!	!	!	!
4r	.	1G/	-a	0ryy	4g/	-a
4G\	ceſ-	.	.	.	4b\	ceſ-
4G\	-set	.	.	.	4b\	-set
*custos:E	*	*	*	*	*	*
!LO:TX:t=P:problem=kreska pseudotaktowa	!	!	!	!	!	!
4F\	iam	.	.	.	4a\	iam
*xywh-#316:1172,3493,6072,942	*	*	*	*	*	*
!LO:LB:g=original	!	!	!	!	!	!
2E\	ma-	4r	.	.	2g/	ma-
*	*	*	*ij	*	*	*
.	.	4c\	ceſ-	.	.	.
!LO:TX:t=P:problem=kreska pseudotaktowa	!	!	!	!	!LO:TX:t=P:problem=kreska pseudotaktowa	!
2C/	-mus	4c\	-set	.	2g/	-n(us)
.	.	4B\	iam	.	.	.
=15-	=15-	=15-	=15-	=15-	=15-	=15-
4r	.	2A/	ma-	0ryy	4r	.
*	*	*	*	*	*	*ij
4F\	ceſ-	.	.	.	4a\	ceſ-
!	!	!LO:TX:t=P:problem=kreska pseudotaktowa	!	!	!	!
4F\	-set	2A/	-nus	.	4a\	-set
!LO:TX:t=P:problem=kreska pseudotaktowa	!	!	!	!	!	!
4E\	iam	.	.	.	4g/	iam
2D/	ma-	4r	.	.	2f/	ma-
.	.	4A/	ceſ-	.	.	.
!	!	!	!	!	!LO:TX:t=P:problem=kreska pseudotaktowa	!
2D/	-nus	4B\	-set	.	2f/	-nus
*	*	*	*	*	*	*Xij
.	.	4A\	iam	.	.	.
=16-	=16-	=16-	=16-	=16-	=16-	=16-
2E\	tu-	4G#X/	ma-	0ryy	2e/	tu-
.	.	4G#/	-nus	.	.	.
!	!	!LO:TX:t=P:problem=kreska pseudotaktowa	!	!	!	!
2F\	.	2.A/	tu-	.	2d/	.
1E\	.	.	.	.	1e/	.
.	.	8G#/L	.	.	.	.
!	!	!LO:TX:t=P:problem=♯ below	!	!	!	!
.	.	8F#/J	.	.	.	.
!	!	!LO:TX:t=P:problem=♯ below	!	!	!	!
.	.	2G#X/	.	.	.	.
=17-	=17-	=17-	=17-	=17-	=17-	=17-
!LO:TX:t=P:problem=kreska pseudotaktowa	!	!LO:TX:t=P:problem=kreska pseudotaktowa	!	!	!	!
0AA/	-a	1A\	-a	0ryy	1e/	-a
*	*	*	*Xij	*	*	*
!	!	!LO:TX:t=P:problem=kreska pseudotaktowa	!	!	!	!
.	.	1rF	.	.	4a\	Ut
.	.	.	.	.	4a\	non
.	.	.	.	.	4a\	de-
.	.	.	.	.	4b\	-ſo-
=18-	=18-	=18-	=18-	=18-	=18-	=18-
00r	.	4A/	Ut	0ryy	2cc\	-le-
.	.	4A/	non	.	.	.
!	!	!	!	!	!LO:TX:t=P:problem=kreska pseudotaktowa	!
.	.	4A/	de-	.	2cc\	-tur
*	*	*custos:c	*	*	*	*
!	!	!LO:TX:t=P:problem=kreska pseudotaktowa	!	!	!	!
.	.	4B\	-ſo-	.	.	.
!	!	!LO:LB:g=original	!	!	!	!
*	*	*	*	*	*	*ij
*	*	*xywh-#230:1134,1705,6000,907	*	*	*	*
.	.	2c\	-le-	.	4g/	Ut
.	.	.	.	.	4g/	non
!	!	!LO:TX:t=P:problem=kreska pseudotaktowa	!	!	!	!
.	.	2c\	-tur	.	4g/	de-
*	*	*	*	*	*custos:b-	*
.	.	.	.	.	4a\	-ſo-
!	!	!	!	!	!LO:LB:g=original	!
=19-	=19-	=19-	=19-	=19-	=19-	=19-
*	*	*	*	*	*xywh-#66:7332,1213,6158,793	*
.	.	4G/	ter-	0ryy	2b-X\	-le-
.	.	4F/	.	.	.	.
!	!	!	!	!	!LO:TX:t=P:problem=kreska pseudotaktowa	!
.	.	4G/	.	.	2b-X\	-tur
*	*	*	*	*	*	*Xij
.	.	4A\	.	.	.	.
.	.	2.B-X\	.	.	4f/	ter-
.	.	.	.	.	4e/	.
.	.	.	.	.	4f/	.
.	.	8A/L	.	.	4g\	.
!	!	!LO:TX:t=P:problem=kreska pseudotaktowa	!	!	!	!
.	.	8G/J	.	.	.	.
=20-	=20-	=20-	=20-	=20-	=20-	=20-
0rBB	.	4F/	.	0ryy	4a\	.
.	.	4G/	.	.	4b\	.
.	.	4A/	.	.	4cc\	.
.	.	4B\	.	.	8b\L	.
!	!	!	!	!	!LO:TX:t=P:problem=kreska pseudotaktowa	!
.	.	.	.	.	8a\J	.
.	.	4c\	.	.	4g/	.
.	.	4d\	.	.	4f/	.
.	.	2c\	.	.	2g/	.
=21-	=21-	=21-	=21-	=21-	=21-	=21-
!LO:TX:t=P:problem=kreska pseudotaktowa	!	!LO:TX:t=P:problem=kreska pseudotaktowa	!	!	!LO:TX:t=P:problem=kreska pseudotaktowa	!
1rBB	.	1F/	-ra	0ryy	1a\	-ra
4D/	Ut	2r	.	.	4f/	Ut
4D/	non	.	.	.	4f/	non
4D/	de-	2.A/	Ut	.	4f/	de-
4E\	-ſo-	.	.	.	4g/	-ſo-
=22-	=22-	=22-	=22-	=22-	=22-	=22-
2F\	-le-	.	.	0ryy	2a\	-le-
.	.	4A/	non	.	.	.
!LO:TX:t=P:problem=kreska pseudotaktowa	!	!	!	!	!LO:TX:t=P:problem=kreska pseudotaktowa	!
2F\	-tur	4A/	de-	.	2a\	-tur
!	!	!LO:TX:t=P:problem=kreska pseudotaktowa	!	!	!	!
.	.	4B\	-ſo-	.	.	.
*	*ij	*	*	*	*	*ij
4E\	Ut	2c\	-le-	.	4g/	Ut
4E\	non	.	.	.	4g/	non
4E\	de-	2c\	-ta	.	4g/	de-
4F\	-ſo-	.	.	.	4a\	-ſo-
=23-	=23-	=23-	=23-	=23-	=23-	=23-
*	*	*	*ij	*	*	*
2G\	-le-	4B\	Ut	0ryy	2b\	-le-
.	.	4B\	non	.	.	.
!LO:TX:t=P:problem=kreska pseudotaktowa	!	!	!	!	!LO:TX:t=P:problem=kreska pseudotaktowa	!
2G\	-tur	4B\	de-	.	2b\	-tur
*	*Xij	*	*	*	*	*Xij
!	!	!LO:TX:t=P:problem=kreska pseudotaktowa	!	!	!	!
.	.	4c\	-ſo-	.	.	.
4D/	ter-	2d\	-le-	.	1a\	ter-
4C/	.	.	.	.	.	.
4D/	.	2d\	-ta	.	.	.
*	*	*	*Xij	*	*	*
4E\	.	.	.	.	.	.
=24-	=24-	=24-	=24-	=24-	=24-	=24-
!	!	!	!	!	!LO:TX:t=P:problem=kreska pseudotaktowa	!
2.F\	.	4A/	ter-	0ryy	1a\	-ra
.	.	4G/	.	.	.	.
.	.	4A/	.	.	.	.
!	!	!LO:TX:t=P:problem=kreska pseudotaktowa	!	!	!	!
8E\L	.	4B\	.	.	.	.
!LO:TX:t=P:problem=kreska pseudotaktowa	!	!	!	!	!	!
8D\J	.	.	.	.	.	.
4C/	.	4c\	.	.	0r	.
4D/	.	8B\L	.	.	.	.
.	.	8A\J	.	.	.	.
4E\	.	4G/	.	.	.	.
!LO:TX:t=P:problem=kreska pseudotaktowa	!	!LO:TX:t=P:problem=kreska pseudotaktowa	!	!	!	!
4F\	.	4A/	.	.	.	.
=25-	=25-	=25-	=25-	=25-	=25-	=25-
4G\	.	4B\	.	0ryy	.	.
4A\	.	2c\	.	.	.	.
*custos:C	*	*	*	*	*	*
!LO:TX:t=P:problem=kreska pseudotaktowa	!	!	!	!	!	!
2G\	.	.	.	.	.	.
!	!	!LO:TX:t=P:problem=kreska pseudotaktowa	!	!	!	!
.	.	4B\	.	.	.	.
*	*	*custos:C	*	*	*	*
*xywh-#316:7250,442,6340,1012	*	*	*	*	*	*
!LO:PB:g=original	!	!	!	!	!	!
2C/	-ra	2c\	-ra.	.	2r	.
!	!	!LO:LB:g=original	!	!	!	!
!	!	!LO:TX:t=P:problem=kreska pseudotaktowa	!	!	!LO:TX:t=P:problem=kreska pseudotaktowa	!
*	*	*xywh-#230:1241,2308,5967,949	*	*	*	*
2AA/	et	2c#X\	et	.	2a\	et
=26-	=26-	=26-	=26-	=26-	=26-	=26-
2AA/	ne	2c#X\	ne	0ryy	2a\	ne
!LO:TX:t=P:problem=kreska pseudotaktowa	!	!LO:TX:t=P:problem=kreska pseudotaktowa	!	!	!	!
2D/	per-	2d\	per-	.	2a\	per-
2GG/	-das	2d\	-das	.	2b\	-das
!	!	!	!	!	!LO:TX:t=P:problem=kreska pseudotaktowa	!
2C/	om-	2e\	om-	.	2cc\	om-
=27-	=27-	=27-	=27-	=27-	=27-	=27-
2BB/	-nem	2d\	-ne(m)	0ryy	2dd\	-ne(m)
2.C/	a-	2.e\	a-	.	2.cc\	a-
4C/	-ni-	4e\	-ni-	.	4cc\	-ni-
!LO:TX:t=P:problem=kreska pseudotaktowa	!	!	!	!	!LO:TX:t=P:problem=kreska pseudotaktowa	!
2D/	-ma(m)	1d\	-ma(m)	.	2a\	-mam
=28-	=28-	=28-	=28-	=28-	=28-	=28-
!	!	!	!	!	!LO:TX:t=P:problem=♯ below	!
0E\	Viven-	.	.	0ryy	2g#X/	Vi-
*	*	*	*	*	*custos:g#	*
!	!	!LO:TX:t=P:problem=kreska pseudotaktowa	!	!	!	!
.	.	2c\	Vi-	.	1a\	-ven-
.	.	1B\	-ven-	.	.	.
*	*	*	*	*	*xywh-#66:7342,1785,6208,914	*
!	!	!	!	!	!LO:LB:g=original	!
!	!	!	!	!	!LO:TX:t=P:problem=♯ below	!
.	.	.	.	.	2g#X/	.
=29-	=29-	=29-	=29-	=29-	=29-	=29-
!	!	!LO:TX:t=P:problem=kreska pseudotaktowa	!	!	!	!
!LO:TX:t=P:problem=kreska pseudotaktowa	!	!LO:TX:t=P:problem=♯ below	!	!	!LO:TX:t=P:problem=kreska pseudotaktowa	!
1AA/	-tem	1c#X\	-te(m).	0ryy	1a\	-tem
00r	.	2d\	E-	.	2r	.
.	.	4d\	-go	.	2.a\	E-
.	.	4d\	ſum	.	.	.
=30-	=30-	=30-	=30-	=30-	=30-	=30-
.	.	2d\	qui	0ryy	.	.
.	.	.	.	.	4a\	-go
!	!	!LO:TX:t=P:problem=kreska pseudotaktowa	!	!	!LO:TX:t=P:problem=kreska pseudotaktowa	!
.	.	2c#X\	pec-	.	2a\	ſum
.	.	2.d\	-ca-	.	4b-X\	qui
.	.	.	.	.	4a\	pec-
.	.	.	.	.	1a\	-ca-
.	.	4cny\	.	.	.	.
=31-	=31-	=31-	=31-	=31-	=31-	=31-
!	!	!LO:TX:t=P:problem=kreska pseudotaktowa	!	!	!	!
.	.	1B-X\	.	0ryy	.	.
.	.	.	.	.	2g/	.
!	!	!	!	!	!LO:TX:t=P:problem=kreska pseudotaktowa	!
00r	.	2A/	-vi	.	1a\	vi
.	.	2.d\	e-	.	.	.
=32-	=32-	=32-	=32-	=32-	=32-	=32-
.	.	.	.	0ryy	4r	.
.	.	4d\	-go	.	2a\	e-
.	.	4c\	qui	.	.	.
!	!	!LO:TX:t=P:problem=kreska pseudotaktowa	!	!	!LO:TX:t=P:problem=kreska pseudotaktowa	!
.	.	4A/	i-	.	4a\	-go
.	.	2c\	-ni-	.	4g/	qui
.	.	.	.	.	4e/	i-
.	.	2B-X\	-que	.	1g\	-ni-
=33-	=33-	=33-	=33-	=33-	=33-	=33-
!	!	!LO:TX:t=P:problem=kreska pseudotaktowa	!	!	!	!
.	.	0A\	e-	0ryy	.	.
!	!	!	!	!	!LO:TX:t=P:problem=kreska pseudotaktowa	!
.	.	.	.	.	2f/	-que
!LO:TX:t=P:problem=kreska pseudotaktowa	!	!	!	!	!	!
0r	.	.	.	.	1e/	e-
=34-	=34-	=34-	=34-	=34-	=34-	=34-
!	!	!	!	!	!LO:TX:t=P:problem=kreska pseudotaktowa	!
!	!	!LO:TX:t=P:global:problem=rozdzielacz słów	!	!	!LO:TX:t=P:global:problem=rozdzielacz słów	!
.	.	1D/,	-gi	0ryy	1f#X/,	-gi
2D/	E-	2A/	E-	.	2fny/	E-
4D/	-go	4A/	-go	.	4f/	-go
!LO:TX:t=P:problem=kreska pseudotaktowa	!	!LO:TX:t=P:problem=kreska pseudotaktowa	!	!	!	!
4D/	ſum	4A/	ſu(m)	.	4f/	ſum
=35-	=35-	=35-	=35-	=35-	=35-	=35-
2D/	qui	2A/	qui	0ryy	2f/	qui
!LO:TX:t=P:problem=kreska pseudotaktowa	!	!LO:TX:t=P:problem=kreska pseudotaktowa	!	!	!LO:TX:t=P:problem=kreska pseudotaktowa	!
2C#X/	pec-	2A/	pe-	.	2e/	pec-
2.D/	-ca-	4A/	-ca-	.	4f/	-ca-
*	*	*custos:F	*	*	*	*
.	.	4G/	.	.	4g/	.
*	*	*xywh-#230:1273,2941,5967,990	*	*	*	*
!	!	!LO:LB:g=original	!	!	!	!
.	.	4F/	.	.	1a\	.
!	!	!LO:TX:t=P:problem=kreska pseudotaktowa	!	!	!	!
4Cny/	.	4E/	.	.	.	.
=36-	=36-	=36-	=36-	=36-	=36-	=36-
1BB-X/	.	1D/	.	0ryy	.	.
.	.	.	.	.	2g/	.
!LO:TX:t=P:problem=kreska pseudotaktowa	!	!	!	!	!	!
1AA/	-vi	4E/	-vi	.	0a\	-vi
.	.	2e\	e-	.	.	.
!	!	!LO:TX:t=P:problem=kreska pseudotaktowa	!	!	!	!
.	.	4e\	-go	.	.	.
=37-	=37-	=37-	=37-	=37-	=37-	=37-
!	!	!	!	!	!LO:TX:t=P:problem=kreska pseudotaktowa	!
4r	.	4c\	qui	0ryy	.	.
2A\	e-	4A/	i-	.	.	.
.	.	4c\	-ni-	.	.	.
!LO:TX:t=P:problem=kreska pseudotaktowa	!	!LO:TX:t=P:problem=kreska pseudotaktowa	!	!	!	!
4A\	-go	4c\	-que	.	.	.
4G\	qui	1.B\	e-	.	00r	.
4E\	i-	.	.	.	.	.
1G\	-ni-	.	.	.	.	.
=38-	=38-	=38-	=38-	=38-	=38-	=38-
.	.	.	.	0ryy	.	.
!	!	!LO:TX:t=P:problem=kreska pseudotaktowa	!	!	!	!
2F\	-que	2A/	.	.	.	.
0E\	e-	2G#X/	.	.	.	.
.	.	2.A/	.	.	.	.
=39-	=39-	=39-	=39-	=39-	=39-	=39-
.	.	.	.	0ryy	.	.
!	!	!LO:TX:t=P:problem=♯ below	!	!	!	!
.	.	8G#X/L	.	.	.	.
.	.	8F#X/J	.	.	.	.
!	!	!LO:TX:t=P:problem=kreska pseudotaktowa	!	!	!	!
!	!	!LO:TX:t=P:problem=♯ below	!	!	!	!
.	.	2G#X/	.	.	.	.
!LO:TX:t=P:problem=kreska pseudotaktowa	!	!	!	!	!	!
1AA/	-gi	2A,/	-gi	.	2r	.
!	!	!	!	!	!LO:TX:t=P:problem=kreska pseudotaktowa	!
.	.	2A/	I-	.	2e/	I-
=40-	=40-	=40-	=40-	=40-	=40-	=40-
0r	.	2d\	-ſti	0ryy	2f/	-ſti
.	.	1c\	qui	.	1g\	qui
.	.	4A/	o-	.	2.a\	o-
!	!	!LO:TX:t=P:problem=kreska pseudotaktowa	!	!	!	!
.	.	4B-X\	.	.	.	.
=41-	=41-	=41-	=41-	=41-	=41-	=41-
*custos:A	*	*	*	*	*	*
!LO:TX:t=P:problem=kreska pseudotaktowa	!	!	!	!	!	!
1r	.	2.c\	-ves	0ryy	.	.
.	.	.	.	.	8g/L	.
*	*	*	*	*	*custos:g	*
.	.	.	.	.	8f/J	.
*	*	*	*	*	*xywh-#66:7402,2378,5947,894	*
!	!	!	!	!	!LO:LB:g=original	!
.	.	.	.	.	4g/	.
!	!	!	!	!	!LO:TX:t=P:problem=kreska pseudotaktowa	!
.	.	4c\	.	.	4g/	-ves
*xywh-#316:7259,1048,6230,962	*	*	*	*	*	*
!LO:LB:g=original	!	!	!	!	!	!
4r	.	2F/	ſunt	.	4a\	ſunt,
2A\	quid	.	.	.	2cc\	quid
.	.	4r	.	.	.	.
!LO:TX:t=P:problem=kreska pseudotaktowa	!	!	!	!	!	!
4E\	fe-	2e\	quid	.	4g/	fe-
=42-	=42-	=42-	=42-	=42-	=42-	=42-
2G\	-ce-	.	.	0ryy	2b\	-ce-
.	.	4B\	fe-	.	.	.
!	!	!LO:TX:t=P:problem=kreska pseudotaktowa	!	!	!LO:TX:t=P:problem=kreska pseudotaktowa	!
4D/	-runt	2d\	-ce-	.	2a\	-runt
*	*ij	*	*	*	*	*
2D/	quid	.	.	.	.	.
.	.	4A/	-runt	.	4r	.
*	*	*	*ij	*	*	*ij
4AA/	fe-	2c\	quid	.	2a\	quid
!LO:TX:t=P:problem=kreska pseudotaktowa	!	!	!	!	!	!
2C/	-ce-	.	.	.	.	.
!	!	!LO:TX:t=P:problem=kreska pseudotaktowa	!	!	!LO:TX:t=P:problem=kreska pseudotaktowa	!
.	.	4G/	fe-	.	4e/	fe-
=43-	=43-	=43-	=43-	=43-	=43-	=43-
2GG/	-runt	2B\	-ce-	0ryy	2g/	-ce-
*	*Xij	*	*	*	*	*
!	!	!LO:TX:t=P:problem=kreska pseudotaktowa	!	!	!LO:TX:t=P:problem=♯ below	!
4r	.	2A/	-runt	.	2f#X/	-runt
*	*	*	*Xij	*	*	*Xij
2D/	a-	.	.	.	.	.
!	!	!	!	!	!LO:TX:t=P:problem=♯ below	!
.	.	4A/	a-	.	4f#X/	a-
!	!	!	!	!	!LO:TX:t=P:problem=♯ below	!
4D/	-ver-	4A/	-ver-	.	4f#X/	-ver-
4D/	-ta-	4A/	-ta-	.	4f#/	-ta-
!	!	!	!	!	!LO:TX:t=P:problem=kreska pseudotaktowa	!
!LO:TX:t=P:problem=kreska pseudotaktowa	!	!LO:TX:t=P:problem=kreska pseudotaktowa	!	!	!LO:TX:t=P:problem=♯ below	!
4D/	-tur	4A/	-tur	.	4f#X/	-tur
=44-	=44-	=44-	=44-	=44-	=44-	=44-
2G\	ob-	2B\	ob-	0ryy	2g/	ob-
4F#X\	-ſe-	4A/	-ſe-	.	4a\	-ſe-
*	*	*custos:B	*	*	*	*
!LO:TX:t=P:problem=kreska pseudotaktowa	!	!	!	!	!LO:TX:t=P:problem=kreska pseudotaktowa	!
4F#X\	-cro	4A/	-cro	.	4a\	-cro
*	*	*xywh-#230:1224,3543,6025,1295	*	*	*	*
!	!	!LO:LB:g=original	!	!	!	!
2.G\	fu-	2.B\	fu-	.	2.g/	fu-
!	!	!LO:TX:t=P:problem=kreska pseudotaktowa	!	!	!	!
4G\	-ror	4B\	-ror	.	4g/	-ror
=45-	=45-	=45-	=45-	=45-	=45-	=45-
2G\	tu-	2B\	tu-	0ryy	2g/	tu-
!LO:TX:t=P:problem=kreska pseudotaktowa	!	!	!	!	!LO:TX:t=P:problem=kreska pseudotaktowa	!
2E\	-us	2B\	-us	.	2g/	-us
2.A\	Do-	2.c\	Do-	.	1.a\	Do-
!	!	!LO:TX:t=P:problem=kreska pseudotaktowa	!	!	!	!
4G\	.	4B\	.	.	.	.
=46-	=46-	=46-	=46-	=46-	=46-	=46-
2.F\	.	2.A/	.	0ryy	.	.
.	.	.	.	.	2a\	-mi-
4F\	-mi-	4A/	-mi-	.	.	.
!LO:TX:t=P:problem=kreska pseudotaktowa	!	!LO:TX:t=P:problem=kreska pseudotaktowa	!	!	!LO:TX:t=P:problem=kreska pseudotaktowa	!
1E\	-ne	1B\	-ne	.	1g#X\	-ne
=47-	=47-	=47-	=47-	=47-	=47-	=47-
2r	.	2r	.	0ryy	2r	.
!LO:TX:t=P:problem=kreska pseudotaktowa	!	!	!	!	!	!
!LO:TX:t=P:problem=♯ below	!	!LO:TX:t=P:problem=kreska pseudotaktowa	!	!	!	!
2C#X/	a	2A/	a	.	2a\	à
2D/	po-	2A/	po-	.	2f/	po-
4D/	-pu-	4A/	-pu-	.	4f/	-pu-
!LO:TX:t=P:problem=kreska pseudotaktowa	!	!LO:TX:t=P:problem=kreska pseudotaktowa	!	!	!LO:TX:t=P:problem=kreska pseudotaktowa	!
4D/	-lo	4B\	-lo	.	4f/	-lo
=48-	=48-	=48-	=48-	=48-	=48-	=48-
0E\	tu-	2G#X/	tu-	0ryy	0e/	tu-
.	.	1A\	.	.	.	.
!	!	!LO:TX:t=P:problem=♯ below	!	!	!	!
.	.	2G#X/	.	.	.	.
=49-	=49-	=49-	=49-	=49-	=49-	=49-
!LO:TX:t=P:problem=kreska pseudotaktowa	!	!LO:TX:t=P:problem=kreska pseudotaktowa	!	!	!	!
0AA/	-o	1A\	-o	0ryy	1e/	-o
.	.	1r	.	.	4a\	Ut
.	.	.	.	.	4a\	non
.	.	.	.	.	4a\	de-
!	!	!	!	!	!LO:TX:t=P:problem=kreska pseudotaktowa	!
.	.	.	.	.	4b\	-ſo-
=50-	=50-	=50-	=50-	=50-	=50-	=50-
00r	.	4A/	Ut	0ryy	2cc\	-le-
.	.	4A/	non	.	.	.
*	*	*	*	*	*custos:g	*
!	!	!	!	!	!LO:TX:t=P:problem=kreska pseudotaktowa	!
.	.	4A/	de-	.	2cc\	-tur
!	!	!LO:TX:t=P:problem=kreska pseudotaktowa	!	!	!	!
.	.	4B\	-ſo-	.	.	.
!	!	!	!	!	!LO:LB:g=original	!
*	*	*	*	*	*	*ij
*	*	*	*	*	*xywh-#66:7302,2911,6349,994	*
.	.	2c\	-le-	.	4g/	Ut
.	.	.	.	.	4g/	non
!	!	!LO:TX:t=P:problem=kreska pseudotaktowa	!	!	!	!
.	.	2c\	-tur	.	4g/	de-
.	.	.	.	.	4a\	-ſo-
=51-	=51-	=51-	=51-	=51-	=51-	=51-
.	.	4G/	ter-	0ryy	2b-X\	-le-
.	.	4F/	.	.	.	.
!	!	!	!	!	!LO:TX:t=P:problem=kreska pseudotaktowa	!
.	.	4G/	.	.	2b-X\	-tur
*	*	*	*	*	*	*Xij
!	!	!LO:TX:t=P:problem=kreska pseudotaktowa	!	!	!	!
.	.	4A/	.	.	.	.
.	.	2.B-X\	.	.	4f/	ter-
.	.	.	.	.	4e/	.
.	.	.	.	.	4f/	.
!	!	!	!	!	!LO:TX:t=P:problem=kreska pseudotaktowa	!
.	.	8A/L	.	.	4g/	.
!	!	!LO:TX:t=P:problem=kreska pseudotaktowa	!	!	!	!
.	.	8G/J	.	.	.	.
=52-	=52-	=52-	=52-	=52-	=52-	=52-
0rBB	.	4F/	.	0ryy	4a\	.
.	.	4G/	.	.	4b\	.
.	.	4A\	.	.	4cc\	.
.	.	4B\	.	.	8b\L	.
.	.	.	.	.	8a\J	.
.	.	4c\	.	.	4g/	.
.	.	4d\	.	.	4f/	.
!	!	!LO:TX:t=P:problem=kreska pseudotaktowa	!	!	!	!
.	.	2c\	.	.	2g/	.
=53-	=53-	=53-	=53-	=53-	=53-	=53-
!LO:TX:t=P:problem=kreska pseudotaktowa	!	!LO:TX:t=P:problem=kreska pseudotaktowa	!	!	!LO:TX:t=P:problem=kreska pseudotaktowa	!
1rBB	.	1F/	-ra	0ryy	1a\,	-ra
4D/	Ut	2r	.	.	4f/	Ut
4D/	non	.	.	.	4f/	non
4D/	de-	2.A/	Ut	.	4f/	de-
*custos:F	*	*	*	*	*	*
!LO:TX:t=P:problem=kreska pseudotaktowa	!	!	!	!	!	!
4E\	-ſo-	.	.	.	4g/	-ſo-
!LO:LB:g=original	!	!	!	!	!	!
=54-	=54-	=54-	=54-	=54-	=54-	=54-
*xywh-#316:7239,1643,6270,1061	*	*	*	*	*	*
2F\	-le-	.	.	0ryy	2a\	-le-
.	.	4A/	no(n)	.	.	.
!LO:TX:t=P:problem=kreska pseudotaktowa	!	!	!	!	!LO:TX:t=P:problem=kreska pseudotaktowa	!
2F\	-tur	4A/	de-	.	2a\	-tur
*	*	*custos:c	*	*	*	*
!	!	!LO:TX:t=P:problem=kreska pseudotaktowa	!	!	!	!
.	.	4B\	-ſo-	.	.	.
!	!	!LO:PB:g=original	!	!	!	!
*	*ij	*	*	*	*	*ij
*	*	*xywh-#230:7192,486,5926,949	*	*	*	*
4E\	Ut	2c\	-le-	.	4g/	Ut
4E\	non	.	.	.	4g/	non
!	!	!LO:TX:t=P:problem=kreska pseudotaktowa	!	!	!	!
4E\	de-	2c\	-tur	.	4g/	de-
!LO:TX:t=P:problem=kreska pseudotaktowa	!	!	!	!	!	!
4F\	-ſo-	.	.	.	4a\	-ſo-
=55-	=55-	=55-	=55-	=55-	=55-	=55-
*	*	*	*ij	*	*	*
2G\	-le-	4B\	Ut	0ryy	2b\	-le-
.	.	4B\	non	.	.	.
!	!	!	!	!	!LO:TX:t=P:problem=kreska pseudotaktowa	!
2G\	-tur	4B\	de-	.	2b\	-tur
*	*Xij	*	*	*	*	*Xij
.	.	4c\	-ſo-	.	.	.
4D/	ter-	2d\	-le-	.	1a\	ter-
4C/	.	.	.	.	.	.
!	!	!LO:TX:t=P:problem=kreska pseudotaktowa	!	!	!	!
4D/	.	2d\	-tur	.	.	.
*	*	*	*Xij	*	*	*
!LO:TX:t=P:problem=kreska pseudotaktowa	!	!	!	!	!	!
4E\	.	.	.	.	.	.
=56-	=56-	=56-	=56-	=56-	=56-	=56-
!	!	!	!	!	!LO:TX:t=P:problem=kreska pseudotaktowa	!
2.F\	.	4A/	ter-	0ryy	1a\	-ra
.	.	4G/	.	.	.	.
.	.	4A/	.	.	.	.
8E\L	.	4B\	.	.	.	.
!LO:TX:t=P:problem=kreska pseudotaktowa	!	!	!	!	!	!
8D\J	.	.	.	.	.	.
4C/	.	4c\	.	.	0r	.
4D/	.	8B\L	.	.	.	.
.	.	8A\J	.	.	.	.
4E\	.	4G/	.	.	.	.
!LO:TX:t=P:problem=kreska pseudotaktowa	!	!LO:TX:t=P:problem=kreska pseudotaktowa	!	!	!	!
4F\	.	4A/	.	.	.	.
=57-	=57-	=57-	=57-	=57-	=57-	=57-
4G\	.	4B\	.	0ryy	.	.
4A\	.	2c\	.	.	.	.
!LO:TX:t=P:problem=kreska pseudotaktowa	!	!	!	!	!	!
2G\	.	.	.	.	.	.
.	.	4B\	.	.	.	.
!LO:TX:t=P:global:problem=rozdzielacz słów	!	!	!	!	!	!
2C,/	ra	2c\	-ra	.	2r	.
!LO:TX:t=P:problem=kreska pseudotaktowa	!	!LO:TX:t=P:problem=kreska pseudotaktowa	!	!	!LO:TX:t=P:problem=kreska pseudotaktowa	!
2AA/	et	2c#X\	et	.	2a\	et
=58-	=58-	=58-	=58-	=58-	=58-	=58-
2AA/	ne	2c#X\	ne	0ryy	2a\	ne
2D/	per-	2d\	per-	.	2a\	per-
2GG/	-das	2d\	-das	.	2b\	-das
!LO:TX:t=P:problem=kreska pseudotaktowa	!	!LO:TX:t=P:problem=kreska pseudotaktowa	!	!	!LO:TX:t=P:problem=kreska pseudotaktowa	!
2C/	o-	2e\	o-	.	2cc\	om-
=59-	=59-	=59-	=59-	=59-	=59-	=59-
*	*	*	*	*	*custos:cc	*
2BB/	-mne(m)	2d\	-mnem	0ryy	2dd\	-nem
*	*	*	*	*	*xywh-#66:7452,3574,5907,964	*
!	!	!	!	!	!LO:LB:g=original	!
!LO:TX:t=P::problem=kreska pseudotaktowa&colon;między nutą a kropką	!	!	!	!	!LO:TX:t=P:problem=kreska pseudotaktowa	!
2.C/	a-	2.e\	a-	.	2.cc\	a-
4C/	-ni-	4e\	-ni-	.	4cc\	-ni-
!LO:TX:t=P:problem=kreska pseudotaktowa	!	!	!	!	!	!
2D/	-ma(m)	1d\	-mam	.	(4b\	-mam
.	.	.	.	.	4a\)	.
=60-	=60-	=60-	=60-	=60-	=60-	=60-
!	!	!	!	!	!LO:TX:t=P:problem=# below	!
0E\	Viven-	.	.	0ryy	2g#X/	Vi-
!	!	!LO:TX:t=P:problem=kreska pseudotaktowa	!	!	!	!
.	.	2c\	Vi-	.	1a\	-ven-
.	.	1B\	-ven-	.	.	.
!	!	!	!	!	!LO:TX:t=P:problem=kreska pseudotaktowa	!
!	!	!	!	!	!LO:TX:t=P:problem=# below	!
.	.	.	.	.	2g#X/	.
=61-	=61-	=61-	=61-	=61-	=61-	=61-
!	!	!LO:TX:t=P:problem=kreska pseudotaktowa	!	!	!	!
!LO:TX:t=P:problem=kreska pseudotaktowa	!	!LO:TX:t=P:problem=♯ above	!	!	!LO:TX:t=P:problem=kreska pseudotaktowa	!
1AA/	-te(m)	1c#X\	-te(m)	0ryy	1a\	-tem
2rBB	.	2rc	.	.	2r	.
2.AA/	a-	2.cn\	a-	.	2.a\	a-
=62-	=62-	=62-	=62-	=62-	=62-	=62-
.	.	.	.	0ryy	.	.
4AA/	-ni-	4c\	-ni-	.	4a\	-ni-
!LO:TX:t=P:problem=kreska pseudotaktowa	!	!	!	!	!	!
2GG#X/	-ma(m)	4B\	-ma(m)	.	1b\	-mam
!	!	!LO:TX:t=P:problem=kreska pseudotaktowa	!	!	!	!
.	.	4B\	Vi-	.	.	.
2AA/	Vi-	1c\	-ven-	.	.	.
2AA/	-ven-	.	.	.	1a\	Vi-
=63-	=63-	=63-	=63-	=63-	=63-	=63-
00.E\	-te(m).	00.B\	-te(m).	00.ryy	.	.
.	.	.	.	.	4g#/	-ven-
!	!	!	!	!	!LO:TX:t=P:problem=kreska pseudotaktowa	!
!	!	!	!	!	!LO:TX:t=P:problem=# below	!
.	.	.	.	.	4f#X/	.
.	.	.	.	.	1g#\	-tem.
.	.	.	.	.	00g#	.
==	==	==	==	==	==	==
*-	*-	*-	*-	*-	*-	*-
!!!system-decoration: [(s1,s2,s3,s4)]
!!!EED: Leszek Kubiak
!!!EEV: 2021-03-18
!!!ENC: Andrzej Kubiczek
!!!END: 2021-03-04
!!!ENC-iiif: Bartosz Żurakowski
!!!END-iiif: 2022-09-19
